icons/amazon-fill.svg

<svg xmlns="http://www.w3.org/2000/svg" width="24" height="24" fill="none"><g clip-path="url(#a)"><g><path fill="#121212" d="M21.9957 18.23C21.9957 18.957 21.5907 20.357 20.6817 21.126C20.4997 21.266 20.3167 21.187 20.3967 20.983C20.6617 20.335 21.2687 18.836 20.9837 18.491C20.7837 18.229 19.9537 18.248 19.2457 18.309C18.9217 18.35 18.6387 18.369 18.4177 18.414C18.2147 18.431 18.1727 18.251 18.3767 18.111C18.6387 17.926 18.9217 17.786 19.2467 17.683C20.3967 17.339 21.7267 17.546 21.9167 17.766C21.9527 17.808 21.9967 17.926 21.9967 18.229L21.9957 18.23ZM20.0747 19.524C19.8106 19.7257 19.5333 19.9094 19.2447 20.074C17.1227 21.349 14.3747 22.017 11.9867 22.017C8.14369 22.017 4.70669 20.6 2.09869 18.229C1.87569 18.047 2.06069 17.783 2.32169 17.926C5.13169 19.566 8.60969 20.558 12.2107 20.558C14.4757 20.558 16.9187 20.134 19.2457 19.222C19.4077 19.161 19.5897 19.078 19.7487 19.02C20.1157 18.855 20.4387 19.263 20.0747 19.524ZM13.9047 8.494C13.9047 7.453 13.9457 6.84 13.6007 6.314C13.2947 5.881 12.7677 5.621 12.0327 5.662C11.2347 5.706 10.3777 6.229 10.1587 7.188C10.1167 7.408 9.98769 7.624 9.72269 7.671L7.28669 7.361C7.11269 7.321 6.84869 7.188 6.93469 6.84C7.45769 4.088 9.80969 3.129 12.0327 3H12.5557C13.7757 3 15.3427 3.349 16.3457 4.264C17.5627 5.4 17.4337 6.926 17.4337 8.584V12.511C17.4337 13.689 17.9107 14.211 18.3917 14.825C18.5217 15.044 18.5657 15.302 18.3467 15.48C17.8667 15.915 16.9527 16.699 16.4297 17.134C16.2557 17.267 15.9417 17.281 15.8197 17.179C15.0497 16.534 14.8617 16.176 14.3847 15.521C13.5547 16.392 12.8587 16.873 12.0297 17.134C11.4467 17.282 10.8471 17.3546 10.2457 17.35C8.15569 17.35 6.49969 16.047 6.49969 13.47C6.49969 11.421 7.58969 10.028 9.19969 9.369C10.8097 8.709 13.1497 8.499 13.9037 8.495L13.9047 8.494ZM13.4267 13.686C13.9467 12.814 13.9037 12.1 13.9037 10.501C13.2527 10.501 12.5977 10.546 12.0327 10.679C10.9877 10.982 10.1587 11.64 10.1587 13.034C10.1587 14.124 10.7257 14.866 11.6837 14.866C11.8157 14.866 11.9317 14.85 12.0327 14.821C12.7027 14.635 13.1207 14.299 13.4267 13.686Z"/></g></g><defs><clipPath id="a"><rect width="24" height="24" fill="white"/></clipPath></defs></svg>

<svg width="24" height="24" fill="none" xmlns="http://www.w3.org/2000/svg"><g clip-path="url(#a)"><path d="M21.996 18.23c0 .727-.405 2.127-1.314 2.896-.182.14-.365.061-.285-.143.265-.648.872-2.147.587-2.492-.2-.262-1.03-.243-1.738-.182-.324.041-.607.06-.828.105-.203.017-.245-.163-.041-.303.262-.185.545-.325.87-.428 1.15-.344 2.48-.137 2.67.083.036.042.08.16.08.463l-.001.001Zm-1.921 1.294a7.441 7.441 0 0 1-.83.55c-2.122 1.275-4.87 1.943-7.258 1.943-3.843 0-7.28-1.417-9.888-3.788-.223-.182-.038-.446.223-.303 2.81 1.64 6.288 2.632 9.889 2.632a19.48 19.48 0 0 0 7.035-1.336c.162-.061.344-.144.503-.202.367-.165.69.243.326.504Zm-6.17-11.03c0-1.041.04-1.654-.304-2.18-.306-.433-.833-.693-1.568-.652-.798.044-1.655.567-1.874 1.526-.042.22-.171.436-.436.483l-2.436-.31c-.174-.04-.438-.173-.352-.521C7.458 4.088 9.81 3.129 12.033 3h.523c1.22 0 2.787.349 3.79 1.264 1.217 1.136 1.088 2.662 1.088 4.32v3.927c0 1.178.477 1.7.958 2.314.13.219.174.477-.045.655a76.07 76.07 0 0 1-1.917 1.654c-.174.133-.488.147-.61.045-.77-.645-.958-1.003-1.435-1.658-.83.871-1.526 1.352-2.355 1.613a7.032 7.032 0 0 1-1.784.216c-2.09 0-3.746-1.303-3.746-3.88 0-2.049 1.09-3.442 2.7-4.101 1.61-.66 3.95-.87 4.704-.874v-.001Zm-.478 5.192c.52-.872.477-1.586.477-3.185-.651 0-1.306.045-1.871.178-1.045.303-1.874.961-1.874 2.355 0 1.09.567 1.832 1.525 1.832.132 0 .248-.016.349-.045.67-.186 1.088-.522 1.394-1.135Z" /></g><defs><clipPath id="a"><path fill="#fff" d="M0 0h24v24H0z"/></clipPath></defs></svg>
